packages/core/src/svgs/tokens/branded/STELLA.svg

<svg width="24" height="24" viewBox="0 0 24 24" fill="none" xmlns="http://www.w3.org/2000/svg">
<path d="M12 22C14.6522 22 17.1957 20.9464 19.0711 19.071C20.9464 17.1957 22 14.6522 22 12C22 9.34785 20.9464 6.80429 19.0711 4.92892C17.1957 3.05357 14.6522 2 12 2C9.34784 2 6.80429 3.05357 4.92892 4.92892C3.05357 6.80429 2 9.34785 2 12C2 14.6522 3.05357 17.1957 4.92892 19.071C6.80429 20.9464 9.34784 22 12 22Z" fill="#301748"/>
<path d="M12.3824 18.6588C12.0412 18.3471 11.7235 18.0118 11.4353 17.6588C10.7353 16.7588 9.1823 15.1882 8.79407 14.7882L7.45878 13.4235C7.39995 13.3588 7.29407 13.2765 7.3529 13.1705C7.4176 13.0529 7.54113 13.0706 7.64701 13.0765L7.78819 13.1118L8.72936 13.4883C9.36468 13.747 9.98233 14.0118 10.6118 14.2529C10.994 14.3941 11.1587 14.2529 11.0823 13.847C11.0235 13.5176 10.9412 13.1882 10.847 12.8588C10.827 12.7866 10.8229 12.7109 10.8348 12.637C10.8469 12.563 10.8749 12.4926 10.9169 12.4304C10.9588 12.3684 11.0138 12.3161 11.0779 12.2774C11.142 12.2386 11.2138 12.2141 11.2882 12.2059C11.4176 12.1823 11.5529 12.1823 11.6824 12.1706C11.8117 12.1588 11.947 12.1294 12 11.9764C12.0233 11.91 12.025 11.8378 12.0049 11.7701C11.9849 11.7026 11.944 11.643 11.8882 11.5999C11.4588 11.1881 11.0352 10.7647 10.6118 10.3471C8.91671 8.67537 7.2226 7.00282 5.52937 5.32939C5.47054 5.27056 5.39995 5.21173 5.44702 5.11762C5.49996 5.0235 5.58231 5.03526 5.66466 5.05291C5.92936 5.10585 6.1176 5.28821 6.32349 5.43526C6.87054 5.81174 7.44701 6.15292 8.00583 6.51174L9.1823 7.24703C9.56466 7.49998 9.93525 7.74703 10.3176 7.9882C10.8646 8.34116 11.4235 8.67644 11.9647 9.0235C12.5587 9.39999 13.147 9.78815 13.7294 10.1646C13.8411 10.2353 13.9353 10.2706 14.047 10.1764C14.1646 10.0764 14.1471 9.97646 14.0941 9.84113C13.9764 9.52943 13.7588 9.27056 13.6764 8.94702C13.647 8.84703 13.6177 8.74114 13.7294 8.65291C13.771 8.62051 13.8218 8.60195 13.8745 8.59984C13.9273 8.59773 13.9793 8.61218 14.0235 8.64115C14.4235 8.82938 14.8118 9.04116 15.1881 9.27646C15.647 9.5588 16.1294 9.81766 16.6176 10.0411C17.4176 10.4176 18.1823 10.8646 18.9411 11.3176C19.359 11.5845 19.719 11.9326 20 12.3411C20.2176 12.6411 20.4059 12.9705 20.547 13.3118C20.8676 14.0127 21.0106 14.782 20.9635 15.5515C20.9163 16.3209 20.6802 17.0669 20.2764 17.7235C19.6357 18.7343 18.678 19.5039 17.5529 19.9118C17.0427 20.0883 16.5041 20.1682 15.9647 20.147C14.8999 20.0765 13.847 19.9294 12.3765 18.6588H12.3824ZM19.2705 15.4529C19.2793 15.0349 19.2038 14.6192 19.049 14.2308C18.894 13.8424 18.6626 13.4891 18.3686 13.1917C18.0746 12.8944 17.7238 12.6591 17.3371 12.4999C16.9505 12.3407 16.5357 12.2607 16.1176 12.2646C15.7034 12.2708 15.2944 12.3589 14.9143 12.524C14.5344 12.6892 14.1908 12.9279 13.9037 13.2265C13.6166 13.5252 13.3915 13.8778 13.2413 14.264C13.0913 14.6501 13.0192 15.0623 13.0294 15.4764C13.0294 16.9706 14.4824 18.6353 16.1352 18.5294C17.8411 18.5999 19.2588 17.0588 19.2705 15.4529Z" fill="url(#paint0_linear_364_13400)"/>
<path d="M8.62958 11.394C8.62797 11.5215 8.67629 11.6446 8.76423 11.737C8.85217 11.8294 8.97274 11.8836 9.10016 11.8881C9.16506 11.8884 9.22928 11.8751 9.28886 11.8493C9.34829 11.8235 9.40182 11.7856 9.44602 11.7381C9.49021 11.6906 9.52412 11.6345 9.54566 11.5732C9.56708 11.512 9.57559 11.447 9.57078 11.3823C9.56474 11.2533 9.50957 11.1314 9.41665 11.0417C9.32372 10.952 9.19993 10.9012 9.07076 10.8999C8.94804 10.9104 8.83397 10.9674 8.75193 11.0592C8.66991 11.1512 8.62613 11.2709 8.62958 11.394Z" fill="url(#paint1_linear_364_13400)"/>
<path d="M10.6179 5.37644C10.9004 5.37644 11.0708 5.19996 11.0708 4.90585C11.0649 4.78405 11.0132 4.66902 10.9259 4.58388C10.8385 4.49875 10.7222 4.44985 10.6003 4.44702C10.3944 4.44702 10.1062 4.71762 10.1062 4.91761C10.1138 5.04611 10.1718 5.1664 10.2676 5.25234C10.3634 5.33826 10.4894 5.38287 10.6179 5.37644Z" fill="url(#paint2_linear_364_13400)"/>
<path d="M5.47069 9.58818C5.47326 9.53067 5.4637 9.47316 5.44266 9.4195C5.42161 9.36583 5.38953 9.31724 5.34851 9.27675C5.30748 9.23626 5.25841 9.20486 5.20447 9.18454C5.15053 9.16422 5.09294 9.15546 5.0354 9.15881C4.9207 9.16987 4.81375 9.22162 4.73391 9.30475C4.65407 9.38779 4.60659 9.49677 4.6001 9.61179C4.60732 9.72365 4.65582 9.82906 4.73624 9.9073C4.81667 9.98553 4.92326 10.0311 5.0354 10.0352C5.09352 10.037 5.15135 10.0266 5.20531 10.005C5.25926 9.98334 5.30818 9.95081 5.34901 9.90936C5.38985 9.86804 5.42173 9.81863 5.44266 9.76442C5.4636 9.7102 5.47313 9.65214 5.47069 9.59408V9.58818Z" fill="url(#paint3_linear_364_13400)"/>
<path d="M16.1353 18.5294C17.8412 18.5999 19.259 17.0588 19.2706 15.4529C19.2794 15.0349 19.2039 14.6192 19.0491 14.2308C18.8941 13.8424 18.6627 13.4891 18.3687 13.1917C18.0747 12.8944 17.7239 12.6591 17.3372 12.4999C16.9506 12.3407 16.5358 12.2607 16.1177 12.2646C15.7035 12.2708 15.2945 12.3589 14.9144 12.524C14.5345 12.6892 14.191 12.9279 13.9038 13.2265C13.6167 13.5252 13.3916 13.8778 13.2414 14.264C13.0914 14.6501 13.0193 15.0623 13.0295 15.4764C13.0295 16.9706 14.4825 18.6294 16.1353 18.5235V18.5294Z" fill="url(#paint4_linear_364_13400)"/>
<defs>
<linearGradient id="paint0_linear_364_13400" x1="22.0128" y1="11.998" x2="2.0046" y2="11.998" gradientUnits="userSpaceOnUse">
<stop stop-color="#E2107B"/>
<stop offset="1" stop-color="#301748"/>
</linearGradient>
<linearGradient id="paint1_linear_364_13400" x1="21.8473" y1="12" x2="1.8794" y2="12" gradientUnits="userSpaceOnUse">
<stop stop-color="#E2107B"/>
<stop offset="1" stop-color="#0D1126"/>
</linearGradient>
<linearGradient id="paint2_linear_364_13400" x1="22.0003" y1="11.9934" x2="2.00031" y2="11.9934" gradientUnits="userSpaceOnUse">
<stop stop-color="#E2107B"/>
<stop offset="1" stop-color="#0D1126"/>
</linearGradient>
<linearGradient id="paint3_linear_364_13400" x1="22.1258" y1="11.9389" x2="2.00011" y2="11.9389" gradientUnits="userSpaceOnUse">
<stop stop-color="#E2107B"/>
<stop offset="1" stop-color="#0D1126"/>
</linearGradient>
<linearGradient id="paint4_linear_364_13400" x1="20.9532" y1="17.2588" x2="13.1884" y2="14.2647" gradientUnits="userSpaceOnUse">
<stop stop-color="#301748"/>
<stop offset="1" stop-color="#E2107B"/>
</linearGradient>
</defs>
</svg>

<svg xmlns="http://www.w3.org/2000/svg" width="24" height="24" fill="none" viewBox="0 0 24 24">
    <path fill="#301748" d="M12 22a10 10 0 1 0 0-20 10 10 0 0 0 0 20"/>
    <path fill="url(#STELLA__a)" d="M12.382 18.659a9.5 9.5 0 0 1-.947-1c-.7-.9-2.253-2.47-2.64-2.87l-1.336-1.365c-.06-.065-.165-.147-.106-.253.065-.118.188-.1.294-.095l.141.036.941.376c.636.259 1.253.524 1.883.765.382.141.547 0 .47-.406a10 10 0 0 0-.235-.988.52.52 0 0 1 .23-.582.5.5 0 0 1 .211-.071c.13-.024.265-.024.394-.035.13-.012.265-.042.318-.195a.335.335 0 0 0-.112-.376c-.43-.412-.853-.835-1.276-1.253Q8.069 7.84 5.529 5.33c-.058-.058-.13-.117-.082-.211.053-.095.135-.083.218-.065.264.053.453.235.658.382.548.377 1.124.718 1.683 1.077l1.176.735c.383.253.753.5 1.136.741.547.353 1.106.688 1.647 1.035.594.377 1.182.765 1.764 1.142.112.07.206.106.318.011.118-.1.1-.2.047-.335-.118-.312-.335-.57-.418-.894-.029-.1-.058-.206.053-.294a.25.25 0 0 1 .295-.012q.6.282 1.164.635c.459.283.941.542 1.43.765.8.377 1.564.824 2.323 1.277.418.267.778.615 1.059 1.023.218.3.406.63.547.97a4.7 4.7 0 0 1-.27 4.413 5.4 5.4 0 0 1-2.724 2.188 4.3 4.3 0 0 1-1.588.235c-1.065-.07-2.118-.218-3.588-1.488zm6.888-3.206a3.124 3.124 0 0 0-3.152-3.188 3.14 3.14 0 0 0-3.089 3.211c0 1.495 1.453 3.16 3.106 3.053 1.706.07 3.124-1.47 3.135-3.076"/>
    <path fill="url(#STELLA__b)" d="M8.63 11.394a.49.49 0 0 0 .47.494.47.47 0 0 0 .47-.506.506.506 0 0 0-.5-.482.483.483 0 0 0-.44.494"/>
    <path fill="url(#STELLA__c)" d="M10.618 5.376c.282 0 .453-.176.453-.47a.48.48 0 0 0-.47-.459c-.207 0-.495.27-.495.47a.49.49 0 0 0 .512.46"/>
    <path fill="url(#STELLA__d)" d="M5.47 9.588a.41.41 0 0 0-.435-.43.48.48 0 0 0-.435.454.453.453 0 0 0 .435.423.42.42 0 0 0 .436-.44z"/>
    <path fill="url(#STELLA__e)" d="M16.135 18.53c1.706.07 3.124-1.471 3.136-3.077a3.124 3.124 0 0 0-3.153-3.188 3.14 3.14 0 0 0-3.088 3.211c0 1.495 1.453 3.153 3.105 3.047z"/>
    <defs>
        <linearGradient id="STELLA__a" x1="22.013" x2="2.005" y1="11.998" y2="11.998" gradientUnits="userSpaceOnUse">
            <stop stop-color="#E2107B"/>
            <stop offset="1" stop-color="#301748"/>
        </linearGradient>
        <linearGradient id="STELLA__b" x1="21.847" x2="1.879" y1="12" y2="12" gradientUnits="userSpaceOnUse">
            <stop stop-color="#E2107B"/>
            <stop offset="1" stop-color="#0D1126"/>
        </linearGradient>
        <linearGradient id="STELLA__c" x1="22" x2="2" y1="11.993" y2="11.993" gradientUnits="userSpaceOnUse">
            <stop stop-color="#E2107B"/>
            <stop offset="1" stop-color="#0D1126"/>
        </linearGradient>
        <linearGradient id="STELLA__d" x1="22.126" x2="2" y1="11.939" y2="11.939" gradientUnits="userSpaceOnUse">
            <stop stop-color="#E2107B"/>
            <stop offset="1" stop-color="#0D1126"/>
        </linearGradient>
        <linearGradient id="STELLA__e" x1="20.953" x2="13.188" y1="17.259" y2="14.265" gradientUnits="userSpaceOnUse">
            <stop stop-color="#301748"/>
            <stop offset="1" stop-color="#E2107B"/>
        </linearGradient>
    </defs>
</svg>
